assets/img/icons/icon-climate.svg

<svg fill="none" height="59" viewBox="0 0 74 59" width="74" xmlns="http://www.w3.org/2000/svg"><g fill="#bc6e44"><path d="m34.5534 22.1369c.5824-1.712.9952-3.3216 1.8944-4.816 1.8208-3.0272 4.8352-4.9344 8.112-5.6608 1.136-.2528 2.2432-.416 3.3792-.3616 3.104.1504 5.8496 1.0656 8.1728 3.1296 1.6384 1.4528 2.6944 3.1776 3.6224 5.056.4576.9248.3712 1.9104.6656 2.8512.256.8096.416 1.8848-.2208 2.768-.4608.6368-.1248 1.3984-.3776 2.1344-.3904 1.152-1.2896 1.9808-1.7184 3.088-.2592.672-.3392 1.0688.1952 1.5968.4832.4736 1.0784 1.0016 1.2256 1.5904.368 1.4848 1.616 1.9456 2.8064 2.6048 2.7104 1.5072 4.6816 3.6672 5.7024 6.4736.4672 1.2864.9312 2.6912.832 4.0064-.1056 1.3856-.4192 2.8192-.9536 4.1792-.5216 1.3312-1.3216 2.4416-2.3616 3.456-1.4432 1.408-2.9152 2.7392-4.9536 3.3824-.9216.288-1.8176.5664-2.7936.7296-4.592.768-9.2096.2656-13.8144.3616-4.5856.0928-9.1776.0192-13.7664.0192-4.6624 0-9.3312-.0928-13.9904.0416-2.128.064-4.176-.3424-6.2496-.528-1.9136-.1696-3.6224-1.2288-5.1392-2.3648-1.3056-.9792-2.43839-2.1632-3.27679-3.5072-.646404-1.04-1.270406-2.2272-1.385606-3.392-.2048-2.1312-.352001-4.2976.473599-6.4128 1.196797-3.0688 3.324797-5.3088 6.399997-6.8096 2.064-1.008 2.6208-1.488 3.2-3.6672.3712-1.3824 1.1616-2.5312 1.9744-3.5936 2.0768-2.7104 4.7616-4.8448 8.1504-6.0096 1.5488-.5344 3.0752-1.2064 4.8-1.2288.6784-.0096 1.36-.24 2.0352-.4 1.1872-.2752 2.2272.4352 3.3696.416 1.088-.0224 2.0576.2784 2.9952.768.2304.1216.5664.064.9952.0992zm-22.0384 14.448c-.704.464-1.296 1.152-1.984 1.2512-2.1632.3136-3.45919 1.7056-4.92479 2.9728-1.6128 1.3952-2.29121 3.2352-2.36801 5.0976-.1504 3.504 1.3888 6.4128 4.72 8.2144 1.4976.8064 3.1264 1.3312 4.9792 1.3088 6.4384-.0832 12.8768-.032 19.3152-.032 7.9168 0 15.8368-.048 23.7536.0384 1.5616.0192 2.8992-.5632 4.2592-.9664 1.8816-.5568 4-3.2128 4.6592-5.1616.5504-1.632.7392-3.3568.3232-4.9856-.3136-1.2128-1.0624-2.3904-1.8656-3.4112-.6144-.7872-1.5648-1.3728-2.4544-1.92-.736-.4544-1.616-.6944-2.4032-1.0784-.7936-.3872-1.3856-.88-1.6384-1.808-.2496-.912-.7776-1.7952-1.3504-2.5824-1.1392-1.5616-2.9952-2.2336-4.8096-2.6144-1.7248-.3648-3.5488-.144-5.1584.7936-.816.4736-1.6768.8768-2.6368 1.376-.9088-1.0464-1.8976-1.9584-2.5888-3.04-1.2576-1.9712-3.2-3.1136-5.2384-4.1792-1.2768-.6688-2.6304-1.0432-4.096-1.3088-2.6016-.4768-5.1168-.5152-7.952.336-3.5552 1.0688-6.4864 2.8992-8.4384 5.8912-1.1104 1.7056-2.2688 3.4656-2.1024 5.808zm42.4096-7.8816c2.224-1.376 1.6416-3.9168 2.4512-5.9328-.8352-.9472-.56-2.2208-1.1744-3.2896-1.1456-2-2.6368-3.5968-4.88-4.4224-1.7984-.6592-3.5968-1.1904-5.6704-.5024-1.7344.5792-3.4048 1.1104-4.7296 2.3584-1.424 1.3408-2.6272 2.7776-2.6496 4.7904-.9696 1.1264-.2784 1.968.7168 2.4512 2.0192.9856 3.5936 2.3488 4.7232 4.1472 1.7152.2176 3.2576-.3392 4.8352-.6304.3456-.064.8864-.2624 1.008-.128.5472.5824 1.232.2848 1.8432.3968 1.1488.2144 2.2848.4896 3.5264.7616z"/><path d="m34.3587 16.0057c-1.1936 2.3392-1.3792 2.4032-3.632 1.3184-1.2704-.6144-2.4928-1.3376-3.8144-1.8304-.5152-.192-.8544-.4672-1.1872-.7904-.4768-.4544-.464-1.3152-.048-1.8144.7168-.8576 1.0048-.9536 1.9712-.5184 1.472.6592 2.9568 1.2992 4.3776 2.0416.848.4448 1.584 1.072 2.3328 1.5936z"/><path d="m71.7243 20.3576 1.2896 1.2096c-.1184.4384-.0832 1.1392-.4256 1.4016-.5536.4192-1.3472.7296-2.0608.768-1.9104.1024-3.8272.0512-5.744.0288-.7744-.0128-1.1264-.384-1.1872-1.1104-.1216-1.4528.2048-1.7216 1.7856-1.808 2.1472-.1184 4.2912-.3264 6.3424-.4896z"/><path d="m35.3021 3.79724c2.0544 1.4464 3.0144 3.5936 4.4672 5.3824.7392.90876.0768 2.33596-1.104 2.50236-.2976.0416-.6976-.1248-.9504-.3136-1.0784-.8032-1.8016-1.88796-2.5504-2.94716-.4224-.592-.7232-1.2896-1.2448-1.7824-.48-.4544-.5568-.9088-.5408-1.4688.0352-1.0848.2592-1.2896 1.5872-1.3728.144-.0064.2912 0 .336 0z"/><path d="m47.9137.898376.6528 6.784004-1.2736 1.1936c-.4736-.112-1.184-.0864-1.504-.4064-.4384-.432-.784-1.12-.8128-1.7152-.1024-1.9232-.08-3.856-.0192-5.785603.0288-.8672 1.28-1.264001 2.1728-.720001.3616.2208.656.540801.784.6496z"/><path d="m60.099 3.74955c-.6784 1.328-1.4304 2.4608-1.872 3.7632-.3008.896-.96 1.696-1.5104 2.50875-.3328.4896-1.392.6112-1.9392.2848-.8544-.50875-1.1744-1.14875-.8064-1.84635.9632-1.8336 1.9712-3.6448 2.9664-5.4624.0864-.1568.1728-.3392.3168-.4416.7424-.5344 1.7664-.3264 2.3456.4608.1568.2112.2976.4352.4992.7328z"/><path d="m69.5829 11.6233c-1.1748.9185-2.334 1.629-3.2832 2.6242-.6503.6858-1.5852 1.1336-2.4268 1.6389-.5081.3038-1.52-.0322-1.8787-.5588-.5605-.8214-.5811-1.5366.0466-2.0142 1.646-1.2571 3.3233-2.4751 4.9916-3.70417.1444-.1058.2997-.23482.4734-.26702.8984-.17187 1.7395.44819 1.9331 1.40609.0532.2577.0865.5201.144.875z"/><path d="m63.4203 29.0295 1.2864.5696c1.536.6912 3.0688 1.3856 4.5984 2.0832.2464.112.496.2368.7072.3968.464.352.8928.7552.6848 1.3824-.1984.5952-1.1904 1.1712-1.8656 1.1296-.2112-.0128-.4512.0128-.6304-.0672-1.7792-.8106-3.5499-1.6373-5.312-2.48-.2464-.1184-.3968-.4128-.6336-.5696-.688-.4544-.5408-1.1488-.368-1.6736.1728-.528.7936-.7712 1.5328-.7712z"/><path d="m9.80178 50.7542c-2.336.0768-2.8416-.2848-3.5296-2.1344-1.5712-4.24 1.3856-7.1584 4.63042-8.5504.368-.16.864-.0832 1.296-.064.7744.0352 1.1232.3616 1.184 1.1104.0352.4064.0064.816.0064 1.3344-.7264.352-1.4208.8416-2.1984 1.0304-1.42722.3456-1.47842 1.632-2.12162 2.4896-.5312.7104.3264 1.3088.576 1.952.1408.3584.58562.6784.57602 1.0048-.0224.6208-.27202 1.2384-.41922 1.8272z"/><path d="m19.907 36.0588c-2.1825-.8363-2.508-1.3659-2.4238-3.3375.1984-4.5174 4.0564-6.0587 7.5872-6.0815.4012-.0045.8285.2588 1.2191.4443.7.3331.8947.7693.6599 1.483-.1253.3882-.3109.7544-.5122 1.2322-.8061.0423-1.6361.2238-2.426.0959-1.4494-.2357-1.9961.9299-2.9219 1.4704-.7653.4484-.2074 1.3328-.2271 2.0225-.0094.3849.2762.8526.1406 1.1496-.2617.5634-.7315 1.0356-1.0958 1.5211z"/></g></svg>

<svg width="74" height="59" viewBox="0 0 74 59" fill="none" xmlns="http://www.w3.org/2000/svg">
<path d="M34.5534 22.1369C35.1358 20.4249 35.5486 18.8153 36.4478 17.3209C38.2686 14.2937 41.283 12.3865 44.5598 11.6601C45.6958 11.4073 46.803 11.2441 47.939 11.2985C51.043 11.4489 53.7886 12.3641 56.1118 14.4281C57.7502 15.8809 58.8062 17.6057 59.7342 19.4841C60.1918 20.4089 60.1054 21.3945 60.3998 22.3353C60.6558 23.1449 60.8158 24.2201 60.179 25.1033C59.7182 25.7401 60.0542 26.5017 59.8014 27.2377C59.411 28.3897 58.5118 29.2185 58.083 30.3257C57.8238 30.9977 57.7438 31.3945 58.2782 31.9225C58.7614 32.3961 59.3566 32.9241 59.5038 33.5129C59.8718 34.9977 61.1198 35.4585 62.3102 36.1177C65.0206 37.6249 66.9918 39.7849 68.0126 42.5913C68.4798 43.8777 68.9438 45.2825 68.8446 46.5977C68.739 47.9833 68.4254 49.4169 67.891 50.7769C67.3694 52.1081 66.5694 53.2185 65.5294 54.2329C64.0862 55.6409 62.6142 56.9721 60.5758 57.6153C59.6542 57.9033 58.7582 58.1817 57.7822 58.3449C53.1902 59.1129 48.5726 58.6105 43.9678 58.7065C39.3822 58.7993 34.7902 58.7257 30.2014 58.7257C25.539 58.7257 20.8702 58.6329 16.211 58.7673C14.083 58.8313 12.035 58.4249 9.9614 58.2393C8.0478 58.0697 6.339 57.0105 4.8222 55.8745C3.5166 54.8953 2.38381 53.7113 1.54541 52.3673C0.899006 51.3273 0.275004 50.1401 0.159804 48.9753C-0.044996 46.8441 -0.192197 44.6777 0.633403 42.5625C1.8302 39.4937 3.9582 37.2537 7.0334 35.7529C9.0974 34.7449 9.6542 34.2649 10.2334 32.0857C10.6046 30.7033 11.395 29.5545 12.2078 28.4921C14.2846 25.7817 16.9694 23.6473 20.3582 22.4825C21.907 21.9481 23.4334 21.2761 25.1582 21.2537C25.8366 21.2441 26.5182 21.0137 27.1934 20.8537C28.3806 20.5785 29.4206 21.2889 30.563 21.2697C31.651 21.2473 32.6206 21.5481 33.5582 22.0377C33.7886 22.1593 34.1246 22.1017 34.5534 22.1369ZM12.515 36.5849C11.811 37.0489 11.219 37.7369 10.531 37.8361C8.3678 38.1497 7.07181 39.5417 5.60621 40.8089C3.99341 42.2041 3.315 44.0441 3.2382 45.9065C3.0878 49.4105 4.627 52.3193 7.9582 54.1209C9.4558 54.9273 11.0846 55.4521 12.9374 55.4297C19.3758 55.3465 25.8142 55.3977 32.2526 55.3977C40.1694 55.3977 48.0894 55.3497 56.0062 55.4361C57.5678 55.4553 58.9054 54.8729 60.2654 54.4697C62.147 53.9129 64.2654 51.2569 64.9246 49.3081C65.475 47.6761 65.6638 45.9513 65.2478 44.3225C64.9342 43.1097 64.1854 41.9321 63.3822 40.9113C62.7678 40.1241 61.8174 39.5385 60.9278 38.9913C60.1918 38.5369 59.3118 38.2969 58.5246 37.9129C57.731 37.5257 57.139 37.0329 56.8862 36.1049C56.6366 35.1929 56.1086 34.3097 55.5358 33.5225C54.3966 31.9609 52.5406 31.2889 50.7262 30.9081C49.0014 30.5433 47.1774 30.7641 45.5678 31.7017C44.7518 32.1753 43.891 32.5785 42.931 33.0777C42.0222 32.0313 41.0334 31.1193 40.3422 30.0377C39.0846 28.0665 37.1422 26.9241 35.1038 25.8585C33.827 25.1897 32.4734 24.8153 31.0078 24.5497C28.4062 24.0729 25.891 24.0345 23.0558 24.8857C19.5006 25.9545 16.5694 27.7849 14.6174 30.7769C13.507 32.4825 12.3486 34.2425 12.515 36.5849ZM54.9246 28.7033C57.1486 27.3273 56.5662 24.7865 57.3758 22.7705C56.5406 21.8233 56.8158 20.5497 56.2014 19.4809C55.0558 17.4809 53.5646 15.8841 51.3214 15.0585C49.523 14.3993 47.7246 13.8681 45.651 14.5561C43.9166 15.1353 42.2462 15.6665 40.9214 16.9145C39.4974 18.2553 38.2942 19.6921 38.2718 21.7049C37.3022 22.8313 37.9934 23.6729 38.9886 24.1561C41.0078 25.1417 42.5822 26.5049 43.7118 28.3033C45.427 28.5209 46.9694 27.9641 48.547 27.6729C48.8926 27.6089 49.4334 27.4105 49.555 27.5449C50.1022 28.1273 50.787 27.8297 51.3982 27.9417C52.547 28.1561 53.683 28.4313 54.9246 28.7033Z" fill="#BC6E44"/>
<path d="M34.3587 16.0057C33.1651 18.3449 32.9795 18.4089 30.7267 17.3241C29.4563 16.7097 28.2339 15.9865 26.9123 15.4937C26.3971 15.3017 26.0579 15.0265 25.7251 14.7033C25.2483 14.2489 25.2611 13.3881 25.6771 12.8889C26.3939 12.0313 26.6819 11.9353 27.6483 12.3705C29.1203 13.0297 30.6051 13.6697 32.0259 14.4121C32.8739 14.8569 33.6099 15.4841 34.3587 16.0057Z" fill="#BC6E44"/>
<path d="M71.7243 20.3576L73.0139 21.5672C72.8955 22.0056 72.9307 22.7064 72.5883 22.9688C72.0347 23.388 71.2411 23.6984 70.5275 23.7368C68.6171 23.8392 66.7003 23.788 64.7835 23.7656C64.0091 23.7528 63.6571 23.3816 63.5963 22.6552C63.4747 21.2024 63.8011 20.9336 65.3819 20.8472C67.5291 20.7288 69.6731 20.5208 71.7243 20.3576Z" fill="#BC6E44"/>
<path d="M35.3021 3.79724C37.3565 5.24364 38.3165 7.39084 39.7693 9.17964C40.5085 10.0884 39.8461 11.5156 38.6653 11.682C38.3677 11.7236 37.9677 11.5572 37.7149 11.3684C36.6365 10.5652 35.9133 9.48044 35.1645 8.42124C34.7421 7.82924 34.4413 7.13164 33.9197 6.63884C33.4397 6.18444 33.3629 5.73004 33.3789 5.17004C33.4141 4.08524 33.6381 3.88044 34.9661 3.79724C35.1101 3.79084 35.2573 3.79724 35.3021 3.79724Z" fill="#BC6E44"/>
<path d="M47.9137 0.898376L48.5665 7.68238L47.2929 8.87598C46.8193 8.76398 46.1089 8.78958 45.7889 8.46958C45.3505 8.03758 45.0049 7.34958 44.9761 6.75438C44.8737 4.83118 44.8961 2.89838 44.9569 0.968777C44.9857 0.101577 46.2369 -0.295224 47.1297 0.248776C47.4913 0.469576 47.7857 0.789577 47.9137 0.898376Z" fill="#BC6E44"/>
<path d="M60.099 3.74955C59.4206 5.07755 58.6686 6.21035 58.227 7.51275C57.9262 8.40875 57.267 9.20875 56.7166 10.0215C56.3838 10.5111 55.3246 10.6327 54.7774 10.3063C53.923 9.79755 53.603 9.15755 53.971 8.45995C54.9342 6.62635 55.9422 4.81515 56.9374 2.99755C57.0238 2.84075 57.1102 2.65835 57.2542 2.55595C57.9966 2.02155 59.0206 2.22955 59.5998 3.01675C59.7566 3.22795 59.8974 3.45195 60.099 3.74955Z" fill="#BC6E44"/>
<path d="M69.5829 11.6233C68.4081 12.5418 67.2489 13.2523 66.2997 14.2475C65.6494 14.9333 64.7145 15.3811 63.8729 15.8864C63.3648 16.1902 62.3529 15.8542 61.9942 15.3276C61.4337 14.5062 61.4131 13.791 62.0408 13.3134C63.6868 12.0563 65.3641 10.8383 67.0324 9.60923C67.1768 9.50343 67.3321 9.37441 67.5058 9.34221C68.4042 9.17034 69.2453 9.7904 69.4389 10.7483C69.4921 11.006 69.5254 11.2684 69.5829 11.6233Z" fill="#BC6E44"/>
<path d="M63.4203 29.0295L64.7067 29.5991C66.2427 30.2903 67.7755 30.9847 69.3051 31.6823C69.5515 31.7943 69.8011 31.9191 70.0123 32.0791C70.4763 32.4311 70.9051 32.8343 70.6971 33.4615C70.4987 34.0567 69.5067 34.6327 68.8315 34.5911C68.6203 34.5783 68.3803 34.6039 68.2011 34.5239C66.4219 33.7133 64.6512 32.8866 62.8891 32.0439C62.6427 31.9255 62.4923 31.6311 62.2555 31.4743C61.5675 31.0199 61.7147 30.3255 61.8875 29.8007C62.0603 29.2727 62.6811 29.0295 63.4203 29.0295Z" fill="#BC6E44"/>
<path d="M9.80178 50.7542C7.46578 50.831 6.96018 50.4694 6.27218 48.6198C4.70098 44.3798 7.65778 41.4614 10.9026 40.0694C11.2706 39.9094 11.7666 39.9862 12.1986 40.0054C12.973 40.0406 13.3218 40.367 13.3826 41.1158C13.4178 41.5222 13.389 41.9318 13.389 42.4502C12.6626 42.8022 11.9682 43.2918 11.1906 43.4806C9.76338 43.8262 9.71218 45.1126 9.06898 45.9702C8.53778 46.6806 9.39538 47.279 9.64498 47.9222C9.78578 48.2806 10.2306 48.6006 10.221 48.927C10.1986 49.5478 9.94898 50.1654 9.80178 50.7542Z" fill="#BC6E44"/>
<path d="M19.907 36.0588C17.7245 35.2225 17.399 34.6929 17.4832 32.7213C17.6816 28.2039 21.5396 26.6626 25.0704 26.6398C25.4716 26.6353 25.8989 26.8986 26.2895 27.0841C26.9895 27.4172 27.1842 27.8534 26.9494 28.5671C26.8241 28.9553 26.6385 29.3215 26.4372 29.7993C25.6311 29.8416 24.8011 30.0231 24.0112 29.8952C22.5618 29.6595 22.0151 30.8251 21.0893 31.3656C20.324 31.814 20.8819 32.6984 20.8622 33.3881C20.8528 33.773 21.1384 34.2407 21.0028 34.5377C20.7411 35.1011 20.2713 35.5733 19.907 36.0588Z" fill="#BC6E44"/>
</svg>
